components/AnnouncementBar/logos/color-moodys.svg

<svg width="259" height="60" viewBox="0 0 259 60" fill="none" xmlns="http://www.w3.org/2000/svg">
<path d="M89.3031 56.5779C80.211 57.4393 75.7732 48.1629 75.0805 39.2314C74.1338 27.0172 79.9907 22.1893 85.6452 21.6536C94.2868 20.8393 99.0263 29.8114 99.7428 39.0772C100.656 50.9529 95.2573 56.0057 89.3031 56.5779ZM68.1161 39.4629C68.1161 50.4214 75.3564 59.1943 87.5565 59.1943C98.6512 59.1943 106.695 50.6764 106.695 38.9486C106.695 28.32 100.233 19.0372 87.5565 19.0372C76.1364 19.0372 68.1161 27.9086 68.1161 39.4629V39.4629ZM238.359 8.90572C238.359 4.38858 235.54 0.567865 232.289 0.567865C229.233 0.567865 228.516 2.82215 228.516 4.14644C228.516 5.77072 229.556 6.48215 230.634 6.57429C232.142 6.67287 234.572 8.13644 234.572 11.4472C234.572 14.9979 231.515 17.4386 228.594 18.9107C228.209 19.515 228.514 20.4022 229.145 20.7364C234.097 19.0972 238.359 14.9057 238.359 8.90787V8.90572ZM251.765 37.11L246.891 34.3264C243.741 32.5029 241.643 30.5829 241.643 27.4864C241.643 24.525 243.36 21.5464 248.002 21.5464C252.649 21.5464 254.689 25.9907 255.346 29.0293C255.715 29.6293 257.132 29.5436 257.398 28.8622C257.444 25.125 256.898 21.8122 256.267 20.3336C253.599 19.8279 251.702 19.0372 248.937 19.0372C241.012 19.0372 236.562 23.4622 236.562 29.8114C236.562 34.6843 239.811 38.0722 243.594 40.2343L247.127 42.2464C251.628 44.7664 252.649 47.6379 252.649 50.4214C252.649 54.4136 250.055 56.6872 246.039 56.6872C240.76 56.6872 237.305 50.5157 236.664 47.3764C236.106 46.5836 234.931 46.6714 234.619 47.565C234.619 52.1614 235.556 55.2922 236.273 56.5007C237.374 57.36 240.536 59.1943 245.321 59.1943C253.121 59.1943 258.162 54.9386 258.162 48.1629C258.162 42.3343 254.61 38.6764 251.765 37.11V37.11ZM169.635 55.8922C163.619 55.8922 162.849 53.1064 162.849 47.565V26.8586C162.849 24.93 162.849 23.8243 163.304 23.4622C163.947 22.8729 165.445 22.5193 168.051 22.5193C176.937 22.5193 183.705 28.0843 183.705 38.7729C183.705 49.365 179.069 55.8922 169.633 55.8922H169.635ZM179.855 21.9129C176.157 20.5114 172.291 20.0014 167.883 20.0014C161.52 20.0014 157.098 20.1729 152.684 20.5114C151.983 20.7686 151.894 22.4272 152.598 22.6907L154.958 23.0336C156.78 23.2907 156.851 24.7693 156.851 30.42V48.8679C156.851 54.8507 156.538 55.1936 153.154 55.8022L151.651 56.0593C151.11 56.5007 151.191 57.9879 151.804 58.2343C154.487 58.0787 157.172 57.9965 159.858 57.9879C161.043 57.9879 162.538 58.0714 164.09 58.155C165.757 58.3414 167.583 58.4207 169.312 58.4207C173.241 58.4207 177.648 57.7457 181.196 55.7143C187.508 52.1614 190.723 45.8143 190.723 38.9486C190.723 30.945 187.017 24.6 179.855 21.9129V21.9129ZM224.549 20.0014C222.318 20.1729 220.665 20.2479 218.922 20.2479C217.126 20.2479 215.322 20.1707 212.966 20.0014C212.168 20.3357 212.093 21.7307 212.793 22.1593L214.45 22.4272C216.36 22.6907 216.185 23.4622 215.006 25.8986L211.856 32.2586C210.527 35.0229 209.336 37.11 208.073 39.4629C206.83 37.1 205.653 34.6975 204.543 32.2586L201.617 26.0786C200.343 23.3657 200.605 22.8729 202.324 22.4272L203.435 22.1593C204.213 21.7307 203.987 20.3357 203.346 20.0014C198.705 20.329 194.048 20.329 189.407 20.0014C188.79 20.2479 188.633 21.6429 189.169 22.1593L191.223 22.5879C193.259 23.0336 194.065 23.8243 195.709 27.2893L201.452 39.0279C203.435 43.0243 203.655 43.7186 203.655 46.4293V49.7079C203.655 54.8507 203.346 55.3779 199.962 55.8022L198.001 56.0593C197.437 56.5007 197.511 57.9879 198.156 58.2343C201.699 58.0714 204.15 57.9879 206.67 57.9879C209.092 57.9879 211.702 58.0714 215.155 58.2343C215.796 57.9879 215.875 56.5007 215.322 56.0614L213.351 55.8043C209.969 55.3779 209.639 54.8507 209.639 49.7079V45.0172C209.639 42.5079 209.808 41.6422 212.646 36.6879L217.525 27.9793C219.966 23.6464 220.357 23.1193 222.81 22.5879L224.692 22.1593C225.335 21.7307 225.162 20.2479 224.549 20.0014V20.0014ZM131.598 56.5779C122.508 57.4393 118.066 48.1629 117.375 39.2314C116.428 27.0172 122.287 22.1893 127.94 21.6536C136.583 20.8393 141.317 29.8114 142.031 39.0772C142.952 50.9529 137.556 56.0057 131.598 56.5779ZM129.851 19.035C118.439 19.035 110.411 27.9086 110.411 39.4629C110.411 50.4214 117.647 59.1943 129.851 59.1943C140.946 59.1943 148.99 50.6764 148.99 38.9486C148.99 28.32 142.536 19.0372 129.851 19.0372V19.035ZM64.5178 55.8022C60.8222 55.3779 60.8956 53.1043 60.6594 48.7779C60.0223 36.2443 59.9449 20.1707 59.7861 10.95C59.7107 4.87287 60.3419 3.30858 65.2938 2.67858L66.961 2.51358C67.3619 2.16215 67.3619 0.690008 66.8915 0.342865C64.4304 0.514294 61.8443 0.589294 59.8735 0.589294C58.2956 0.589294 56.6503 0.589294 53.961 0.342865C53.8022 4.34358 51.6051 9.13072 47.981 17.0272L40.5739 33.6279C38.611 38.0722 36.6362 42.6064 34.5106 46.6714H34.3578C32.4524 42.8443 30.7297 38.85 28.9196 34.7764L19.9407 14.6872C17.5094 9.12858 15.5266 3.72858 15.8462 0.342865C13.2442 0.589294 11.1225 0.589294 9.30646 0.589294C7.34157 0.589294 5.45409 0.516436 3.08829 0.342865C2.45119 0.690008 2.37378 1.99287 2.7747 2.51358L4.02508 2.68072C8.83012 3.55929 9.47913 4.68001 9.30447 10.1636C9.07979 16.6261 8.79 23.0857 8.43516 29.5414C7.9747 38.16 7.58569 42.9343 7.10539 48.6857C6.62905 54.7586 5.52554 55.3779 2.22294 55.8022L0.490271 56.0593C4.2276e-05 56.5007 0.168745 57.8186 0.655004 58.2343C3.32518 58.0728 5.99896 57.9907 8.67332 57.9879C11.6663 57.9879 14.7466 58.0714 17.422 58.2343C17.9738 57.9879 18.0571 56.5886 17.5094 56.0614L14.5124 55.8043C11.4301 55.5514 10.9697 54.1586 10.9697 47.7214C10.9697 40.3393 11.2813 32.58 11.5174 27.2893C11.7655 22.245 11.9978 17.1964 12.2974 11.8093H12.4602C14.1909 15.8122 15.8461 20.3357 17.5094 24.3279L24.579 41.1172C26.393 45.3729 30.17 53.9057 31.5275 58.4979C31.6764 58.7679 32.0773 58.8514 32.2281 58.8514C32.5516 58.8514 32.8593 58.7679 33.0042 58.4979C34.4332 54.5014 37.9858 46.3436 41.5147 38.6764L48.5248 23.4622C50.1026 20.0829 53.0837 13.1229 53.6454 12.1693H53.8022L54.0404 48.4179C54.0404 53.985 54.0403 55.3779 50.186 55.8022L47.9174 56.0593C47.4332 56.5886 47.5106 57.8186 48.0683 58.2343C51.2836 58.0714 54.8323 57.9879 57.5791 57.9879C60.4213 57.9879 63.6564 58.0714 66.8915 58.2343C67.4333 57.8914 67.5087 56.5886 67.0483 56.0614L64.5178 55.8043" fill="#0027A0"/>
</svg>

<svg xmlns="http://www.w3.org/2000/svg" width="259" height="60" fill="none" viewBox="0 0 259 60">
  <path fill="#0027A0" d="M89.303 56.578c-9.092.861-13.53-8.415-14.222-17.347-.947-12.214 4.91-17.042 10.564-17.577 8.642-.815 13.381 8.157 14.098 17.423.913 11.876-4.486 16.929-10.44 17.5ZM68.116 39.463c0 10.958 7.24 19.731 19.44 19.731 11.095 0 19.139-8.518 19.139-20.245 0-10.629-6.462-19.912-19.138-19.912-11.42 0-19.44 8.872-19.44 20.426ZM238.36 8.906c0-4.517-2.819-8.338-6.07-8.338-3.056 0-3.773 2.254-3.773 3.578 0 1.625 1.04 2.336 2.118 2.428 1.508.099 3.938 1.562 3.938 4.873 0 3.55-3.057 5.992-5.978 7.464-.385.604-.08 1.491.551 1.825 4.952-1.639 9.214-5.83 9.214-11.828v-.002Zm13.406 28.204-4.874-2.784c-3.15-1.823-5.248-3.743-5.248-6.84 0-2.961 1.717-5.94 6.359-5.94 4.647 0 6.687 4.445 7.344 7.483.369.6 1.786.515 2.052-.167.046-3.737-.5-7.05-1.131-8.528-2.668-.506-4.565-1.297-7.33-1.297-7.925 0-12.375 4.425-12.375 10.774 0 4.873 3.249 8.261 7.032 10.423l3.533 2.012c4.501 2.52 5.522 5.392 5.522 8.175 0 3.993-2.594 6.266-6.61 6.266-5.279 0-8.734-6.171-9.375-9.31-.558-.793-1.733-.706-2.045.188 0 4.596.937 7.727 1.654 8.936 1.101.859 4.263 2.693 9.048 2.693 7.8 0 12.841-4.255 12.841-11.031 0-5.829-3.552-9.487-6.397-11.053Zm-82.13 18.782c-6.016 0-6.786-2.786-6.786-8.327V26.859c0-1.929 0-3.035.455-3.397.643-.59 2.141-.943 4.747-.943 8.886 0 15.654 5.565 15.654 16.254 0 10.592-4.636 17.12-14.072 17.12h.002Zm10.22-33.98c-3.698-1.4-7.564-1.91-11.972-1.91-6.363 0-10.785.17-15.199.51-.701.257-.79 1.915-.086 2.179l2.36.343c1.822.257 1.893 1.735 1.893 7.386v18.448c0 5.983-.313 6.326-3.697 6.934l-1.503.257c-.541.442-.46 1.929.153 2.175 2.683-.155 5.368-.238 8.054-.246 1.185 0 2.68.083 4.232.167 1.667.186 3.493.266 5.222.266 3.929 0 8.336-.675 11.884-2.707 6.312-3.553 9.527-9.9 9.527-16.765 0-8.004-3.706-14.349-10.868-17.036Zm44.694-1.91c-2.231.17-3.884.246-5.627.246-1.796 0-3.6-.077-5.956-.247-.798.335-.873 1.73-.173 2.158l1.657.268c1.91.264 1.735 1.035.556 3.472l-3.15 6.36c-1.329 2.764-2.52 4.851-3.783 7.204a140.368 140.368 0 0 1-3.53-7.204l-2.926-6.18c-1.274-2.713-1.012-3.206.707-3.652l1.111-.268c.778-.428.552-1.823-.089-2.158a98.97 98.97 0 0 1-13.939 0c-.617.247-.774 1.642-.238 2.158l2.054.429c2.036.446 2.842 1.236 4.486 4.701l5.743 11.739c1.983 3.996 2.203 4.69 2.203 7.401v3.279c0 5.143-.309 5.67-3.693 6.094l-1.961.257c-.564.442-.49 1.929.155 2.175 3.543-.163 5.994-.246 8.514-.246 2.422 0 5.032.083 8.485.246.641-.246.72-1.733.167-2.173l-1.971-.257c-3.382-.426-3.712-.953-3.712-6.096v-4.69c0-2.51.169-3.376 3.007-8.33l4.879-8.709c2.441-4.333 2.832-4.86 5.285-5.391l1.882-.429c.643-.428.47-1.911-.143-2.158Zm-92.951 36.576c-9.09.861-13.532-8.415-14.223-17.347-.947-12.214 4.912-17.042 10.565-17.577 8.643-.815 13.377 8.157 14.091 17.423.921 11.876-4.475 16.929-10.433 17.5Zm-1.747-37.543c-11.412 0-19.44 8.874-19.44 20.428 0 10.958 7.236 19.731 19.44 19.731 11.095 0 19.139-8.518 19.139-20.245 0-10.629-6.454-19.912-19.139-19.912v-.002ZM64.518 55.802c-3.696-.424-3.622-2.698-3.859-7.024-.637-12.534-.714-28.607-.873-37.828-.075-6.077.556-7.641 5.508-8.271l1.667-.165c.4-.352.4-1.824-.07-2.171-2.46.171-5.047.246-7.018.246-1.577 0-3.223 0-5.912-.246-.159 4-2.356 8.788-5.98 16.684l-7.407 16.6c-1.963 4.445-3.938 8.98-6.063 13.044h-.153c-1.906-3.827-3.628-7.821-5.438-11.895l-8.98-20.089C17.51 9.13 15.528 3.73 15.847.343c-2.602.246-4.723.246-6.54.246C7.342.59 5.454.516 3.088.343c-.637.347-.714 1.65-.313 2.17l1.25.168c4.805.878 5.454 1.999 5.28 7.483a962.308 962.308 0 0 1-.87 19.377c-.46 8.619-.85 13.393-1.33 19.145-.476 6.073-1.58 6.692-4.882 7.116L.49 56.06c-.49.442-.321 1.76.165 2.175 2.67-.161 5.344-.243 8.018-.246 2.993 0 6.074.083 8.749.246.552-.246.635-1.645.087-2.173l-2.997-.257c-3.082-.253-3.542-1.645-3.542-8.083 0-7.382.311-15.141.547-20.432.248-5.044.48-10.093.78-15.48h.163c1.73 4.003 3.386 8.527 5.05 12.519l7.069 16.79c1.814 4.255 5.591 12.788 6.948 17.38.15.27.55.353.701.353.324 0 .631-.083.776-.353 1.43-3.997 4.982-12.154 8.51-19.822l7.01-15.214c1.579-3.38 4.56-10.34 5.121-11.293h.157l.238 36.249c0 5.567 0 6.96-3.854 7.384l-2.269.257c-.484.53-.406 1.76.151 2.175 3.216-.163 6.764-.246 9.511-.246 2.842 0 6.077.083 9.312.246.542-.343.618-1.645.157-2.173l-2.53-.257"/>
</svg>
